svg/color/kun.svg

<?xml version="1.0" encoding="UTF-8" ?>
<!DOCTYPE svg PUBLIC "-//W3C//DTD SVG 1.1//EN" "http://www.w3.org/Graphics/SVG/1.1/DTD/svg11.dtd">
<svg width="250pt" height="250pt" viewBox="0 0 250 250" version="1.1" xmlns="http://www.w3.org/2000/svg">
<g id="#fffdfbff">
<path fill="#fffdfb" opacity="1.00" d=" M 0.00 0.00 L 106.55 0.00 C 80.53 5.88 54.78 16.43 35.71 35.70 C 15.41 55.13 4.05 82.10 0.00 109.57 L 0.00 0.00 Z" />
<path fill="#fffdfb" opacity="1.00" d=" M 138.57 0.00 L 250.00 0.00 L 250.00 110.52 C 245.31 82.99 234.73 55.47 214.30 35.70 C 194.62 14.79 166.63 3.66 138.57 0.00 Z" />
<path fill="#fffdfb" opacity="1.00" d=" M 120.37 48.37 C 131.86 45.47 141.06 54.20 148.28 61.72 C 162.43 77.85 178.24 92.42 193.27 107.73 C 202.21 114.10 205.83 129.18 197.25 137.24 C 179.70 156.30 162.31 175.69 142.75 192.74 C 135.64 198.43 126.51 204.89 116.96 201.05 C 105.49 193.43 98.04 181.25 87.23 172.77 C 74.62 158.16 57.25 147.10 48.32 129.64 C 45.33 113.80 61.34 104.55 70.25 94.25 C 83.74 80.74 97.28 67.28 110.72 53.72 C 113.19 50.84 116.87 49.51 120.37 48.37 M 86.29 96.17 C 82.80 98.53 83.10 104.99 85.21 107.89 C 97.05 108.13 108.90 108.10 120.75 107.88 C 123.02 104.98 123.96 95.75 118.02 96.98 C 107.41 97.50 96.89 95.21 86.29 96.17 M 129.27 96.11 C 126.95 98.62 126.92 105.37 129.27 107.87 C 140.75 108.11 152.24 108.17 163.71 107.82 C 168.06 105.08 167.66 93.66 160.00 97.03 C 149.73 97.34 139.54 95.28 129.27 96.11 M 85.25 119.13 C 83.05 122.12 82.65 128.43 86.25 130.79 C 97.75 132.02 109.23 129.87 120.74 129.81 C 123.73 127.75 120.77 122.88 121.89 120.22 C 110.08 117.42 97.37 119.61 85.25 119.13 M 129.27 119.13 C 126.92 121.57 126.97 128.37 129.24 130.82 C 141.08 131.94 152.89 129.96 164.73 129.81 C 167.14 127.20 167.17 121.28 163.71 119.18 C 152.23 118.83 140.74 118.89 129.27 119.13 M 85.25 142.13 C 83.03 145.13 82.70 151.39 86.23 153.83 C 96.19 154.89 106.02 152.06 116.01 152.98 C 123.72 156.39 123.10 145.16 120.79 142.11 C 108.95 141.87 97.09 141.89 85.25 142.13 M 129.27 142.13 C 126.86 144.63 127.08 151.27 129.21 153.90 C 141.06 154.41 152.87 152.51 164.75 152.86 C 167.11 150.17 167.19 144.30 163.71 142.18 C 152.23 141.83 140.75 141.89 129.27 142.13 Z" />
<path fill="#fffdfb" opacity="1.00" d=" M 0.00 139.48 C 4.69 167.01 15.27 194.53 35.70 214.30 C 55.38 235.21 83.37 246.34 111.43 250.00 L 0.00 250.00 L 0.00 139.48 Z" />
<path fill="#fffdfb" opacity="1.00" d=" M 221.02 207.01 C 237.39 188.55 246.34 164.71 250.00 140.58 L 250.00 250.00 L 143.45 250.00 C 172.66 243.57 201.62 230.55 221.02 207.01 Z" />
</g>
<g id="#ff8e15ff">
<path fill="#ff8e15" opacity="1.00" d=" M 106.55 0.00 L 138.57 0.00 C 166.63 3.66 194.62 14.79 214.30 35.70 C 234.73 55.47 245.31 82.99 250.00 110.52 L 250.00 140.58 C 246.34 164.71 237.39 188.55 221.02 207.01 C 201.62 230.55 172.66 243.57 143.45 250.00 L 111.43 250.00 C 83.37 246.34 55.38 235.21 35.70 214.30 C 15.27 194.53 4.69 167.01 0.00 139.48 L 0.00 109.57 C 4.05 82.10 15.41 55.13 35.71 35.70 C 54.78 16.43 80.53 5.88 106.55 0.00 M 120.37 48.37 C 116.87 49.51 113.19 50.84 110.72 53.72 C 97.28 67.28 83.74 80.74 70.25 94.25 C 61.34 104.55 45.33 113.80 48.32 129.64 C 57.25 147.10 74.62 158.16 87.23 172.77 C 98.04 181.25 105.49 193.43 116.96 201.05 C 126.51 204.89 135.64 198.43 142.75 192.74 C 162.31 175.69 179.70 156.30 197.25 137.24 C 205.83 129.18 202.21 114.10 193.27 107.73 C 178.24 92.42 162.43 77.85 148.28 61.72 C 141.06 54.20 131.86 45.47 120.37 48.37 Z" />
<path fill="#ff8e15" opacity="1.00" d=" M 86.29 96.17 C 96.89 95.21 107.41 97.50 118.02 96.98 C 123.96 95.75 123.02 104.98 120.75 107.88 C 108.90 108.10 97.05 108.13 85.21 107.89 C 83.10 104.99 82.80 98.53 86.29 96.17 Z" />
<path fill="#ff8e15" opacity="1.00" d=" M 129.27 96.11 C 139.54 95.28 149.73 97.34 160.00 97.03 C 167.66 93.66 168.06 105.08 163.71 107.82 C 152.24 108.17 140.75 108.11 129.27 107.87 C 126.92 105.37 126.95 98.62 129.27 96.11 Z" />
<path fill="#ff8e15" opacity="1.00" d=" M 85.25 119.13 C 97.37 119.61 110.08 117.42 121.89 120.22 C 120.77 122.88 123.73 127.75 120.74 129.81 C 109.23 129.87 97.75 132.02 86.25 130.79 C 82.65 128.43 83.05 122.12 85.25 119.13 Z" />
<path fill="#ff8e15" opacity="1.00" d=" M 129.27 119.13 C 140.74 118.89 152.23 118.83 163.71 119.18 C 167.17 121.28 167.14 127.20 164.73 129.81 C 152.89 129.96 141.08 131.94 129.24 130.82 C 126.97 128.37 126.92 121.57 129.27 119.13 Z" />
<path fill="#ff8e15" opacity="1.00" d=" M 85.25 142.13 C 97.09 141.89 108.95 141.87 120.79 142.11 C 123.10 145.16 123.72 156.39 116.01 152.98 C 106.02 152.06 96.19 154.89 86.23 153.83 C 82.70 151.39 83.03 145.13 85.25 142.13 Z" />
<path fill="#ff8e15" opacity="1.00" d=" M 129.27 142.13 C 140.75 141.89 152.23 141.83 163.71 142.18 C 167.19 144.30 167.11 150.17 164.75 152.86 C 152.87 152.51 141.06 154.41 129.21 153.90 C 127.08 151.27 126.86 144.63 129.27 142.13 Z" />
</g>
</svg>

<?xml version="1.0" encoding="utf-8"?>
<!-- Generator: Adobe Illustrator 26.0.3, SVG Export Plug-In . SVG Version: 6.00 Build 0)  -->
<svg version="1.1" id="Layer_1" xmlns="http://www.w3.org/2000/svg" xmlns:xlink="http://www.w3.org/1999/xlink" x="0px" y="0px"
	 viewBox="0 0 250 250" style="enable-background:new 0 0 250 250;" xml:space="preserve">
<style type="text/css">
	.st0{fill:#FFFDFB;}
	.st1{fill:#FF8E15;}
</style>
<g id="_x23_fffdfbff">
	<path class="st0" d="M120.4,48.4c11.5-2.9,20.7,5.8,27.9,13.4c14.1,16.1,30,30.7,45,46c8.9,6.4,12.6,21.4,4,29.5
		c-17.6,19.1-34.9,38.4-54.5,55.5c-7.1,5.7-16.2,12.1-25.8,8.3c-11.5-7.6-18.9-19.8-29.7-28.3c-12.6-14.6-30-25.7-38.9-43.1
		c-3-15.8,13-25.1,21.9-35.4c13.5-13.5,27-27,40.5-40.5C113.2,50.8,116.9,49.5,120.4,48.4 M86.3,96.2c-3.5,2.4-3.2,8.8-1.1,11.7
		c11.8,0.2,23.7,0.2,35.5,0C123,105,124,95.8,118,97C107.4,97.5,96.9,95.2,86.3,96.2 M129.3,96.1c-2.3,2.5-2.4,9.3,0,11.8
		c11.5,0.2,23,0.3,34.4-0.1c4.3-2.7,3.9-14.2-3.7-10.8C149.7,97.3,139.5,95.3,129.3,96.1 M85.2,119.1c-2.2,3-2.6,9.3,1,11.7
		c11.5,1.2,23-0.9,34.5-1c3-2.1,0-6.9,1.2-9.6C110.1,117.4,97.4,119.6,85.2,119.1 M129.3,119.1c-2.4,2.4-2.3,9.2,0,11.7
		c11.8,1.1,23.6-0.9,35.5-1c2.4-2.6,2.4-8.5-1-10.6C152.2,118.8,140.7,118.9,129.3,119.1 M85.2,142.1c-2.2,3-2.6,9.3,1,11.7
		c10,1.1,19.8-1.8,29.8-0.9c7.7,3.4,7.1-7.8,4.8-10.9C108.9,141.9,97.1,141.9,85.2,142.1 M129.3,142.1c-2.4,2.5-2.2,9.1-0.1,11.8
		c11.8,0.5,23.7-1.4,35.5-1c2.4-2.7,2.4-8.6-1-10.7C152.2,141.8,140.8,141.9,129.3,142.1z"/>
</g>
<g id="_x23_ff8e15ff">
	<path class="st1" d="M106.6,0h32c28.1,3.7,56,14.8,75.7,35.7c20.4,19.8,31,47.3,35.7,74.8v30.1c-3.7,24.1-12.6,48-29,66.4
		c-19.4,23.5-48.4,36.6-77.6,43h-32c-28.1-3.7-56-14.8-75.7-35.7C15.3,194.5,4.7,167,0,139.5v-29.9c4.1-27.5,15.4-54.4,35.7-73.9
		C54.8,16.4,80.5,5.9,106.6,0 M120.4,48.4c-3.5,1.1-7.2,2.5-9.7,5.4c-13.4,13.6-27,27-40.5,40.5c-8.9,10.3-24.9,19.6-21.9,35.4
		c8.9,17.5,26.3,28.5,38.9,43.1c10.8,8.5,18.3,20.7,29.7,28.3c9.6,3.8,18.7-2.6,25.8-8.3c19.6-17.1,36.9-36.4,54.5-55.5
		c8.6-8.1,5-23.1-4-29.5c-15-15.3-30.8-29.9-45-46C141.1,54.2,131.9,45.5,120.4,48.4z"/>
	<path class="st1" d="M86.3,96.2c10.6-1,21.1,1.3,31.7,0.8c5.9-1.2,5,8,2.7,10.9c-11.8,0.2-23.7,0.2-35.5,0
		C83.1,105,82.8,98.5,86.3,96.2z"/>
	<path class="st1" d="M129.3,96.1c10.3-0.8,20.5,1.2,30.7,0.9c7.7-3.4,8.1,8.1,3.7,10.8c-11.5,0.3-23,0.3-34.4,0.1
		C126.9,105.4,126.9,98.6,129.3,96.1z"/>
	<path class="st1" d="M85.2,119.1c12.1,0.5,24.8-1.7,36.6,1.1c-1.1,2.7,1.8,7.5-1.2,9.6c-11.5,0.1-23,2.2-34.5,1
		C82.7,128.4,83.1,122.1,85.2,119.1z"/>
	<path class="st1" d="M129.3,119.1c11.5-0.2,23-0.3,34.4,0.1c3.5,2.1,3.4,8,1,10.6c-11.8,0.2-23.6,2.1-35.5,1
		C127,128.4,126.9,121.6,129.3,119.1z"/>
	<path class="st1" d="M85.2,142.1c11.8-0.2,23.7-0.3,35.5,0c2.3,3.1,2.9,14.3-4.8,10.9c-10-0.9-19.8,1.9-29.8,0.9
		C82.7,151.4,83,145.1,85.2,142.1z"/>
	<path class="st1" d="M129.3,142.1c11.5-0.2,23-0.3,34.4,0c3.5,2.1,3.4,8,1,10.7c-11.9-0.4-23.7,1.6-35.5,1
		C127.1,151.3,126.9,144.6,129.3,142.1z"/>
</g>
</svg>
